X: 5
T: Jenny Dang The Weaver
R: reel
M: 4/4
L: 1/8
K: Dmaj
B3A B2dB|ABdf gfed|~A2FB A2dB|ABdf gfed|
eBBA B2dB|ABdf gfed|~A2FB A2dB|ABdf gece||
d2fd egfe|dfaf g2fe|d2fd eg~g3|fa~a2 bgec|
d2fd egfe|dfaf g3a|bagf gfed|Bdef gfed||


Tune 380	Setting 13203

